X:1
T: Marce's Reel
C:Gordy Euler
R:Reel
Q: 232
K:A
M:4/4
L:1/8
|:ag ae ag ab|ae cd eg a=g|fe fd e^d ec|dB fd eg ab|
ag ae ag ab|ae cd eg a=g|fe fd e^d ec|Bc de A4:|
|:GA Bc dE cB|AB cd ea ga|fe dc dB fB|gf ed cA eA|
GA Bc dE cB|Ac eg ae =ge|dF Ae cE GA|Bc dB A4:|
